src/assets/img/facebook.svg

<svg width="38" height="38" viewBox="0 0 38 38" fill="none" xmlns="http://www.w3.org/2000/svg">
<path d="M37.7057 19.3667C37.7057 9.08065 29.2792 0.744141 18.8821 0.744141C8.48507 0.744141 0.0585938 9.08065 0.0585938 19.3667C0.0585938 28.6634 6.94095 36.3671 15.9409 37.7637V24.7498H11.1615V19.3667H15.9409V15.2639C15.9409 10.5974 18.7498 8.01858 23.0512 8.01858C25.1101 8.01858 27.2645 8.3823 27.2645 8.3823V12.9652H24.8895C22.5512 12.9652 21.8233 14.4019 21.8233 15.875V19.3667H27.0439L26.2093 24.7498H21.8233V37.7637C30.8233 36.3671 37.7057 28.6634 37.7057 19.3667Z" fill="white"/>
</svg>

<svg xmlns="http://www.w3.org/2000/svg" fill="none" viewBox="0 0 38 38"><path fill="#fff" d="M37.706 19.367C37.706 9.08 29.279.744 18.882.744 8.485.744.06 9.081.06 19.367c0 9.296 6.882 17 15.882 18.397V24.75h-4.78v-5.383h4.78v-4.103c0-4.667 2.809-7.245 7.11-7.245 2.06 0 4.214.363 4.214.363v4.583H24.89c-2.339 0-3.067 1.437-3.067 2.91v3.492h5.22l-.834 5.383h-4.386v13.014c9-1.397 15.883-9.1 15.883-18.397z"/></svg>
